src/16/actions/view-sidetree.svg

<svg xmlns="http://www.w3.org/2000/svg" viewBox="0 0 16 16"><path d="M2 2v12h12V2H2zm1 2h10v9H3V4zm1 1v7h3v-1h2v1h3V9H9v1H7V7h2v1h3V5H9v1H7V5H4zm6 1h1v1h-1V6zm0 4h1v1h-1v-1z" fill="currentColor" color="#5d656b"/></svg>

<svg xmlns="http://www.w3.org/2000/svg" viewBox="0 0 16 16">
  <defs id="defs3051">
    <style type="text/css" id="current-color-scheme">
      .ColorScheme-Text {
        color:#5d656b;
      }
      </style>
  </defs>
 <path style="fill:currentColor;fill-opacity:1;stroke:none" 
       d="M 2 2 L 2 14 L 14 14 L 14 2 L 2 2 z M 3 4 L 13 4 L 13 13 L 3 13 L 3 4 z M 4 5 L 4 12 L 7 12 L 7 11 L 9 11 L 9 12 L 12 12 L 12 9 L 9 9 L 9 10 L 7 10 L 7 7 L 9 7 L 9 8 L 12 8 L 12 5 L 9 5 L 9 6 L 7 6 L 7 5 L 4 5 z M 10 6 L 11 6 L 11 7 L 10 7 L 10 6 z M 10 10 L 11 10 L 11 11 L 10 11 L 10 10 z "
     class="ColorScheme-Text"
     />
</svg>
